nameplates/mirage.svg

<svg xmlns="http://www.w3.org/2000/svg" width="1555" height="758" fill="none"><g fill="#fff" clip-path="url(#a)"><path d="M984.387 208.858c-9.867-1.044-33.588-8.161-41.273-14.423-19.45-15.658-24.005-36.534-13.663-59.403 5.883-12.811 38.901-32.358 51.9-40.614 4.175-2.657 16.225-10.723 19.929-11.862.66-.19 1.7-.19 1.42.475-12.999 17.27-7.117 44.125 5.98 59.687 10.43 12.336 34.91 23.344 50.57 27.045 7.78 1.897 18.4 2.087 25.33 4.365.86.284.76 1.897 1.42 1.897 1.71.19 4.27-1.613 6.36-1.043-8.06 39.759-17.36 80.184-19.92 120.798-1.52 23.343-3.7 65.57 2.37 87.3 7.97 28.753 36.91 11.388 51.33-1.897-1.99-12.621-5.31-26.096-6.74-38.716-4.65-43.651.38-137.974 35.77-168.909 13.38-11.672 61.2-19.737 79.7-23.723 9.59-2.088 21.45-8.445 31.69-5.219 2.66.854 4.65 4.365 7.02 5.978 1.62 1.139 7.02 1.424 4.94 4.081-2.47 3.131-30.65 10.912-35.2 10.438-9.78-1.139-9.68-10.059-20.02 1.044-37.1 39.665-37.01 127.725-30.18 178.397 3.14 23.249 7.22 59.688 39.19 56.366 28.94-3.036 22.3-42.891 23.34-63.198.67-12.146 1.14-24.577 2.09-36.723 1.14-16.037 3.13-32.169 5.12-48.111 11.86-3.226 25.43-9.489 35.01-17.175 7.31-5.884 21.07-19.169 25.72-27.045 4.27-7.401 3.6-16.321 14.8-15.562-1.43 4.65-3.42 9.015-4.65 13.665-5.79 20.591-6.36 44.789-7.31 66.329-3.79 86.352-1.14 173.179-1.9 259.721l-2.56 32.263c-13.19 9.015-26.56 17.745-39.66 27.044-43.36 31.03-86.34 65.856-136.34 86.542-32.07 13.285-71.54 8.825-105.6 5.789-57.691-5.125-123.158-16.037-178.758-32.074-22.013-6.358-43.456-16.227-65.658-22.869-100.384-29.891-210.255-32.358-311.493-5.599l-86.152 44.6c-1.518-1.614 7.021-7.212 8.255-8.161 30.931-22.964 71.16-46.972 104.274-67.848 112.623-70.885 211.394-112.353 348.686-107.039 121.542 4.65 236.256 50.863 353.616 76.104 16.04 3.416 32.36 6.453 48.77 6.453l-7.02-165.113c-11.38 3.037-21.35 9.584-32.35 13.949-34.35 13.57-61.11 18.314-87.1-12.431-2.28-2.657-3.23-7.022-6.55-9.299-19.45 5.409-36.24 17.08-55.41 23.059-11.95 3.7-41.08 10.438-52.75 8.445-12.24-2.088-13.86-23.533-16.7-33.592-21.256 8.73-43.173 16.796-65.47 22.585-11.765 3.036-26.472 6.452-38.522 6.262-4.459 0-18.501-1.992-22.676-3.226-6.926-2.182-10.152-14.803-10.627-21.161-1.897-22.869.285-53.709 8.255-75.344 12.524-34.162 69.832-65.002 101.143-80.849 11.86-5.978 23.815-11.482 36.147-16.321l1.62-16.037c-9.4-.664-20.12.949-29.323 0zm25.333 34.826c-42.981 20.307-79.415 63.293-71.54 113.776 1.898 12.241 8.824 34.161 24.1 33.402 11.196-.57 33.778-11.577 38.24-22.585 4.74-11.577 2.46-39.665 3.22-53.424z"/><path d="M578.013 0c2.467 2.277-13.188 11.577-13.947 12.43-2.088 2.563-.759 28.089-.949 33.878-2.657 66.045-5.883 131.805-7.021 197.85-.949 58.454 1.423 119.09-.949 177.164-.475 12.716-3.985 27.709-4.08 39.665 0 5.694 1.898 14.044 2.087 19.927.19 7.212-.759 14.234-1.043 21.446l5.977-.474c-.095.949-9.108 3.7-6.926 5.503.664.57 12.05-6.073 14.896-3.511-3.226 1.613-6.641 4.65-9.583 6.358-24.859 13.949-48.104 33.212-72.773 47.921-13.568 8.066-29.888 19.168-46.017 18.883 5.028-15.657 13.473-30.27 16.604-46.497 10.531-53.519 9.488-120.703 11.29-175.741 1.613-47.351 2.562-94.892 3.985-142.243.475-16.511.76-32.833 1.898-49.249-1.423 0-1.992 2.846-2.467 3.985-24.099 59.308-46.681 131.901-58.921 194.719-1.233 6.073-3.036 28.373-6.357 31.505-3.795 3.605-24.384 8.16-30.456 9.394-14.233 2.847-27.421 8.161-41.938 11.767l-10.721 1.328c-1.234-7.212-1.803-15.752-4.175-22.679-3.7-11.198-13.188-27.329-18.407-39.286-14.991-34.446-28.749-69.651-44.404-103.812-.664-1.518-1.613-4.745-3.131-5.314 1.044 10.438.664 20.876.949 31.315.949 31.883 1.423 63.672 0 95.556-1.234 29.796-4.555 59.782-4.934 89.484-.19 14.898.569 29.986 0 44.884s-2.277 30.745-2.941 45.643c-.759 16.796-.665 36.154-11.576 50.198-2.372 3.037-5.882 4.84-7.78 7.117-52.469 62.439-125.717 102.199-198.206 138.068C23.151 748.606.854 759.234-.19 758.285c.57-2.942 4.27-5.979 6.452-7.971 30.551-26.285 68.694-39.191 102.661-58.549 10.627-6.073 14.896-11.197 19.261-22.584 9.108-24.103 12.998-60.542 15.94-86.542 3.89-35.3 8.634-75.155 9.962-110.36 1.234-31.125-.569-63.293 0-94.607.949-65.097 2.562-130.667 3.036-195.858.19-22.869.285-45.549-3.036-68.228-15.181 4.46-30.646 12.241-46.776 11.482 5.503-5.219 14.137-6.073 20.874-9.015 31.121-13.379 56.169-34.066 85.582-49.723 12.429-6.643 25.808-13.38 39.85-15.373 21.728 66.425 39.85 134.463 67.176 198.895 7.495 17.744 17.173 33.876 25.522 51.052 3.511 7.211 9.394 35.11 21.728 21.066 5.408-6.263 17.363-36.629 21.348-46.213 27.705-65.476 48.389-132.375 67.745-200.792 3.511-5.314 8.919-9.11 14.042-12.81 17.079-12.431 38.996-26.38 57.119-37.388C544.141 15.183 560.46 6.642 577.918.285zm274.395 133.419c6.927 8.16 17.553 13.285 25.618 20.686 17.079 15.752 30.267 43.651 28.18 67.089-1.423 15.942-4.554 22.11-15.75 32.928s-39.186 34.161-52.944 37.577c-2.562.664-5.313.569-7.78 1.708-1.613-1.613 6.072-5.409 7.021-6.453 2.467-2.941 5.124-10.628 6.073-12.336.189-.379 2.561-.854 3.985-3.416 2.372-3.985 8.064-19.927 8.539-24.387.284-3.131-.475-5.314-1.234-8.161-5.313-18.409-33.967-37.482-47.725-51.716-3.226-3.416-5.408-8.256-9.488-10.913l-5.028 220.815h2.846c-.379 8.16 9.678 11.292 16.035 8.92l1.898 8.825c-7.306 5.124-13.379 3.226-21.159 4.27-55.505 6.927-106.361 32.073-156.458 54.373-4.46 1.993-27.421 14.708-30.172 13.095.284-3.226 1.328-3.701 3.985-5.504l-3.036-1.043c.853-9.205 2.466-18.694 3.036-27.804 3.131-55.607 3.985-111.498 5.977-167.105.285-8.066-.759-16.322.475-24.388 18.691-15.182 38.996-29.226 61.198-38.81.664 3.605-.854 7.022-1.044 10.438-2.467 59.497-.19 119.469-4.934 178.967 2.941 9.394 6.642 22.015 15.94 26.854 5.029 2.657 9.298 4.175 14.517 1.803 19.83-9.11 28.939-28.278 30.172-49.344 2.087-34.825.474-74.016.949-109.411.19-13.854-.949-27.993.759-41.752-8.065-8.636-19.735-11.672-27.231-20.497-.759-1.898-7.211-2.562-6.452-4.46 1.708-4.365 33.873-22.964 40.325-25.431l9.867 7.022c5.219 7.306 12.335 11.007 21.443 11.482 7.306-8.92 12.904-16.986 16.984-27.899 1.138-3.131 1.233-7.401 2.182-9.774 2.752-6.737 44.784-33.307 52.564-35.11 3.036-.664 6.547.095 9.773-1.233zm702.502 206.77c1.32 1.139-15.95 14.708-17.46 15.847-28.28 22.489-61.3 46.213-93.27 62.914-31.98 16.701-48.01 14.708-65.75-16.132-26.66-46.308-24.67-107.513-7.78-156.857 14.42-42.322 36.43-61.775 72.96-85.213 11.29-7.212 23.06-13.57 34.73-20.118l2.56.475c9.39 15.278 21.63 29.227 37.57 38.052 3.23 1.803 17.46 7.022 18.03 7.781 1.14 1.328 3.22 12.051 3.51 14.423 2.37 27.235-16.13 45.644-36.91 59.593-25.24 16.986-52.75 29.701-79.6 43.745-1.05 1.139-.95 2.562-.95 3.986.38 23.438 15.37 76.103 40.61 83.79 10.91 3.321 15.84-1.139 24.38-6.833 22.49-14.898 41.37-36.343 67.37-45.548zm-132.27-41.753c13.28-9.109 35.39-14.898 43.55-29.511 7.31-13.095 11.39-25.431 4.37-39.76-1.62-3.226-4.46-5.694-6.08-8.92-6.54-13.19-10.05-40.614-7.3-54.848.28-1.328 2.28-1.518-.29-3.226-5.31-.854-16.51 28.183-18.4 33.307-8.16 22.11-13 44.125-14.9 67.658zm-796.902-100.49c-.474-11.293-6.831-20.402-10.721-30.556-2.372-6.358-3.321-13.095-6.737-19.073l.19-1.803c.854-2.277 21.253-15.752 24.954-17.935 4.08-2.467 23.151-14.044 26.471-13 2.467.759 6.547 16.606 7.875 20.022 4.08 10.249 10.058 19.643 10.627 30.935-4.649 5.599-49.623 34.067-52.659 31.505z"/></g><defs><clipPath id="a"><path fill="#fff" d="M0 0h1555v758H0z"/></clipPath></defs></svg>

<svg width="1555" height="758" viewBox="0 0 1555 758" fill="none" xmlns="http://www.w3.org/2000/svg">
<g clip-path="url(#clip0_22606_13)">
<path d="M984.387 208.858C974.52 207.814 950.799 200.697 943.114 194.435C923.664 178.777 919.109 157.901 929.451 135.032C935.334 122.221 968.352 102.674 981.351 94.418C985.526 91.761 997.576 83.6952 1001.28 82.5565C1001.94 82.3667 1002.98 82.3667 1002.7 83.0309C989.701 100.301 995.583 127.156 1008.68 142.718C1019.11 155.054 1043.59 166.062 1059.25 169.763C1067.03 171.66 1077.65 171.85 1084.58 174.128C1085.44 174.412 1085.34 176.025 1086 176.025C1087.71 176.215 1090.27 174.412 1092.36 174.982C1084.3 214.741 1075 255.166 1072.44 295.78C1070.92 319.123 1068.74 361.35 1074.81 383.08C1082.78 411.833 1111.72 394.468 1126.14 381.183C1124.15 368.562 1120.83 355.087 1119.4 342.467C1114.75 298.816 1119.78 204.493 1155.17 173.558C1168.55 161.886 1216.37 153.821 1234.87 149.835C1244.46 147.747 1256.32 141.39 1266.56 144.616C1269.22 145.47 1271.21 148.981 1273.58 150.594C1275.2 151.733 1280.6 152.018 1278.52 154.675C1276.05 157.806 1247.87 165.587 1243.32 165.113C1233.54 163.974 1233.64 155.054 1223.3 166.157C1186.2 205.822 1186.29 293.882 1193.12 344.554C1196.26 367.803 1200.34 404.242 1232.31 400.92C1261.25 397.884 1254.61 358.029 1255.65 337.722C1256.32 325.576 1256.79 313.145 1257.74 300.999C1258.88 284.962 1260.87 268.83 1262.86 252.888C1274.72 249.662 1288.29 243.399 1297.87 235.713C1305.18 229.829 1318.94 216.544 1323.59 208.668C1327.86 201.267 1327.19 192.347 1338.39 193.106C1336.96 197.756 1334.97 202.121 1333.74 206.771C1327.95 227.362 1327.38 251.56 1326.43 273.1C1322.64 359.452 1325.29 446.279 1324.53 532.821L1321.97 565.084C1308.78 574.099 1295.41 582.829 1282.31 592.128C1238.95 623.158 1195.97 657.984 1145.97 678.67C1113.9 691.955 1074.43 687.495 1040.37 684.459C982.679 679.334 917.212 668.422 861.612 652.385C839.599 646.027 818.156 636.158 795.954 629.516C695.57 599.625 585.699 597.158 484.461 623.917L398.309 668.517C396.791 666.903 405.33 661.305 406.564 660.356C437.495 637.392 477.724 613.384 510.838 592.508C623.461 521.623 722.232 480.155 859.524 485.469C981.066 490.119 1095.78 536.332 1213.14 561.573C1229.18 564.989 1245.5 568.026 1261.91 568.026L1254.89 402.913C1243.51 405.95 1233.54 412.497 1222.54 416.862C1188.19 430.432 1161.43 435.176 1135.44 404.431C1133.16 401.774 1132.21 397.409 1128.89 395.132C1109.44 400.541 1092.65 412.212 1073.48 418.191C1061.53 421.891 1032.4 428.629 1020.73 426.636C1008.49 424.548 1006.87 403.103 1004.03 393.044C982.774 401.774 960.857 409.84 938.56 415.629C926.795 418.665 912.088 422.081 900.038 421.891C895.579 421.891 881.537 419.899 877.362 418.665C870.436 416.483 867.21 403.862 866.735 397.504C864.838 374.635 867.02 343.795 874.99 322.16C887.514 287.998 944.822 257.158 976.133 241.311C987.993 235.333 999.948 229.829 1012.28 224.99L1013.9 208.953C1004.5 208.289 993.78 209.902 984.577 208.953L984.387 208.858ZM1009.72 243.684C966.739 263.991 930.305 306.977 938.18 357.46C940.078 369.701 947.004 391.621 962.28 390.862C973.476 390.292 996.058 379.285 1000.52 368.277C1005.26 356.7 1002.98 328.612 1003.74 314.853L1009.72 243.684Z" fill="white"/>
<path d="M578.013 0C580.48 2.27742 564.825 11.5769 564.066 12.4309C561.978 14.993 563.307 40.519 563.117 46.3075C560.46 112.353 557.234 178.113 556.096 244.158C555.147 302.612 557.519 363.248 555.147 421.322C554.672 434.038 551.162 449.031 551.067 460.987C551.067 466.681 552.965 475.031 553.154 480.914C553.344 488.126 552.395 495.148 552.111 502.36L558.088 501.886C557.993 502.835 548.98 505.586 551.162 507.389C551.826 507.959 563.212 501.316 566.058 503.878C562.832 505.491 559.417 508.528 556.475 510.236C531.616 524.185 508.371 543.448 483.702 558.157C470.134 566.223 453.814 577.325 437.685 577.04C442.713 561.383 451.158 546.77 454.289 530.543C464.82 477.024 463.777 409.84 465.579 354.802C467.192 307.451 468.141 259.91 469.564 212.559C470.039 196.048 470.324 179.726 471.462 163.31C470.039 163.31 469.47 166.156 468.995 167.295C444.896 226.603 422.314 299.196 410.074 362.014C408.841 368.087 407.038 390.387 403.717 393.519C399.922 397.124 379.333 401.679 373.261 402.913C359.028 405.76 345.84 411.074 331.323 414.68L320.602 416.008C319.368 408.796 318.799 400.256 316.427 393.329C312.727 382.131 303.239 366 298.02 354.043C283.029 319.597 269.271 284.392 253.616 250.231C252.952 248.713 252.003 245.486 250.485 244.917C251.529 255.355 251.149 265.793 251.434 276.232C252.383 308.115 252.857 339.904 251.434 371.788C250.2 401.584 246.879 431.57 246.5 461.272C246.31 476.17 247.069 491.258 246.5 506.156C245.931 521.054 244.223 536.901 243.559 551.799C242.8 568.595 242.894 587.953 231.983 601.997C229.611 605.034 226.101 606.837 224.203 609.114C171.734 671.553 98.486 711.313 25.9971 747.182C23.1507 748.606 0.853746 759.234 -0.189941 758.285C0.379343 755.343 4.07969 752.306 6.26195 750.314C36.8135 724.029 74.9556 711.123 108.923 691.765C119.55 685.692 123.819 680.568 128.184 669.181C137.292 645.078 141.182 608.639 144.124 582.639C148.014 547.339 152.758 507.484 154.086 472.279C155.32 441.154 153.517 408.986 154.086 377.672C155.035 312.575 156.648 247.005 157.122 181.814C157.312 158.945 157.407 136.265 154.086 113.586C138.905 118.046 123.44 125.827 107.31 125.068C112.813 119.849 121.447 118.995 128.184 116.053C159.305 102.674 184.353 81.987 213.766 66.3297C226.195 59.6873 239.574 52.9499 253.616 50.9572C275.344 117.382 293.466 185.42 320.792 249.852C328.287 267.596 337.965 283.728 346.314 300.904C349.825 308.115 355.708 336.014 368.042 321.97C373.45 315.707 385.405 285.341 389.39 275.757C417.095 210.281 437.779 143.382 457.135 74.965C460.646 69.651 466.054 65.8553 471.177 62.1545C488.256 49.7236 510.173 35.7744 528.296 24.7669C544.141 15.1828 560.46 6.64246 577.918 0.284677L578.013 0Z" fill="white"/>
<path d="M852.408 133.419C859.335 141.579 869.961 146.704 878.026 154.105C895.105 169.857 908.293 197.756 906.206 221.194C904.783 237.136 901.652 243.304 890.456 254.122C879.26 264.939 851.27 288.283 837.512 291.699C834.95 292.363 832.199 292.268 829.732 293.407C828.119 291.794 835.804 287.998 836.753 286.954C839.22 284.013 841.877 276.326 842.826 274.618C843.015 274.239 845.387 273.764 846.811 271.202C849.183 267.217 854.875 251.275 855.35 246.815C855.634 243.684 854.875 241.501 854.116 238.654C848.803 220.245 820.149 201.172 806.391 186.938C803.165 183.522 800.983 178.682 796.903 176.025L791.875 396.84H794.721C794.342 405 804.399 408.132 810.756 405.76L812.654 414.585C805.348 419.709 799.275 417.811 791.495 418.855C735.99 425.782 685.134 450.928 635.037 473.228C630.577 475.221 607.616 487.936 604.865 486.323C605.149 483.097 606.193 482.622 608.85 480.819L605.814 479.776C606.667 470.571 608.28 461.082 608.85 451.972C611.981 396.365 612.835 340.474 614.827 284.867C615.112 276.801 614.068 268.545 615.302 260.479C633.993 245.297 654.298 231.253 676.5 221.669C677.164 225.274 675.646 228.691 675.456 232.107C672.989 291.604 675.266 351.576 670.522 411.074C673.463 420.468 677.164 433.089 686.462 437.928C691.491 440.585 695.76 442.103 700.979 439.731C720.809 430.621 729.918 411.453 731.151 390.387C733.238 355.562 731.625 316.371 732.1 280.976C732.29 267.122 731.151 252.983 732.859 239.224C724.794 230.588 713.124 227.552 705.628 218.727C704.869 216.829 698.417 216.165 699.176 214.267C700.884 209.902 733.049 191.303 739.501 188.836L749.368 195.858C754.587 203.164 761.703 206.865 770.811 207.34C778.117 198.42 783.715 190.354 787.795 179.441C788.933 176.31 789.028 172.04 789.977 169.667C792.729 162.93 834.761 136.36 842.541 134.557C845.577 133.893 849.088 134.652 852.314 133.324L852.408 133.419Z" fill="white"/>
<path d="M1554.91 340.189C1556.23 341.328 1538.96 354.897 1537.45 356.036C1509.17 378.525 1476.15 402.249 1444.18 418.95C1412.2 435.651 1396.17 433.658 1378.43 402.818C1351.77 356.51 1353.76 295.305 1370.65 245.961C1385.07 203.639 1407.08 184.186 1443.61 160.748C1454.9 153.536 1466.67 147.178 1478.34 140.63L1480.9 141.105C1490.29 156.383 1502.53 170.332 1518.47 179.157C1521.7 180.96 1535.93 186.179 1536.5 186.938C1537.64 188.266 1539.72 198.989 1540.01 201.361C1542.38 228.596 1523.88 247.005 1503.1 260.954C1477.86 277.94 1450.35 290.655 1423.5 304.699C1422.45 305.838 1422.55 307.261 1422.55 308.685C1422.93 332.123 1437.92 384.788 1463.16 392.475C1474.07 395.796 1479 391.336 1487.54 385.642C1510.03 370.744 1528.91 349.299 1554.91 340.094V340.189ZM1422.64 298.436C1435.92 289.327 1458.03 283.538 1466.19 268.925C1473.5 255.83 1477.58 243.494 1470.56 229.165C1468.94 225.939 1466.1 223.471 1464.48 220.245C1457.94 207.055 1454.43 179.631 1457.18 165.397C1457.46 164.069 1459.46 163.879 1456.89 162.171C1451.58 161.317 1440.38 190.354 1438.49 195.478C1430.33 217.588 1425.49 239.603 1423.59 263.136L1422.64 298.436Z" fill="white"/>
<path d="M625.738 197.946C625.264 186.653 618.907 177.544 615.017 167.39C612.645 161.032 611.696 154.295 608.28 148.317L608.47 146.514C609.324 144.237 629.723 130.762 633.424 128.579C637.504 126.112 656.575 114.535 659.895 115.579C662.362 116.338 666.442 132.185 667.77 135.601C671.85 145.85 677.828 155.244 678.397 166.536C673.748 172.135 628.774 200.603 625.738 198.041V197.946Z" fill="white"/>
</g>
<defs>
<clipPath id="clip0_22606_13">
<rect width="1555" height="758" fill="white"/>
</clipPath>
</defs>
</svg>
